images/50957187.svg

<?xml version="1.0" encoding="UTF-8"?>
<svg xmlns="http://www.w3.org/2000/svg" xmlns:xlink="http://www.w3.org/1999/xlink" width="300pt" height="300pt" viewBox="0 0 300 300" version="1.1">
<defs>
<g>
<symbol overflow="visible" id="glyph0-0">
<path style="stroke:none;" d="M 0.453125 1.59375 L 0.453125 -6.34375 L 4.953125 -6.34375 L 4.953125 1.59375 Z M 0.953125 1.09375 L 4.453125 1.09375 L 4.453125 -5.84375 L 0.953125 -5.84375 Z M 0.953125 1.09375 "/>
</symbol>
<symbol overflow="visible" id="glyph0-1">
<path style="stroke:none;" d="M 3.546875 -5.953125 C 2.898438 -5.953125 2.382812 -5.710938 2 -5.234375 C 1.625 -4.753906 1.4375 -4.101562 1.4375 -3.28125 C 1.4375 -2.445312 1.625 -1.789062 2 -1.3125 C 2.382812 -0.832031 2.898438 -0.59375 3.546875 -0.59375 C 4.191406 -0.59375 4.703125 -0.832031 5.078125 -1.3125 C 5.453125 -1.789062 5.640625 -2.445312 5.640625 -3.28125 C 5.640625 -4.101562 5.453125 -4.753906 5.078125 -5.234375 C 4.703125 -5.710938 4.191406 -5.953125 3.546875 -5.953125 Z M 3.546875 -6.6875 C 4.460938 -6.6875 5.195312 -6.375 5.75 -5.75 C 6.300781 -5.132812 6.578125 -4.3125 6.578125 -3.28125 C 6.578125 -2.238281 6.300781 -1.410156 5.75 -0.796875 C 5.195312 -0.179688 4.460938 0.125 3.546875 0.125 C 2.617188 0.125 1.878906 -0.179688 1.328125 -0.796875 C 0.773438 -1.410156 0.5 -2.238281 0.5 -3.28125 C 0.5 -4.3125 0.773438 -5.132812 1.328125 -5.75 C 1.878906 -6.375 2.617188 -6.6875 3.546875 -6.6875 Z M 3.546875 -6.6875 "/>
</symbol>
</g>
</defs>
<g id="surface18953">
<rect x="0" y="0" width="300" height="300" style="fill:rgb(100%,100%,100%);fill-opacity:1;stroke:none;"/>
<path style="fill:none;stroke-width:1.2;stroke-linecap:butt;stroke-linejoin:miter;stroke:rgb(100%,0%,0%);stroke-opacity:1;stroke-miterlimit:10;" d="M 144.234375 161.386719 L 154.605469 155.640625 "/>
<path style="fill:none;stroke-width:1.2;stroke-linecap:butt;stroke-linejoin:miter;stroke:rgb(0%,0%,0%);stroke-opacity:1;stroke-miterlimit:10;" d="M 154.605469 155.640625 L 164.972656 149.890625 "/>
<path style="fill:none;stroke-width:1.2;stroke-linecap:butt;stroke-linejoin:miter;stroke:rgb(0%,0%,0%);stroke-opacity:1;stroke-miterlimit:10;" d="M 126.894531 145.21875 L 135.566406 153.300781 "/>
<path style="fill:none;stroke-width:1.2;stroke-linecap:butt;stroke-linejoin:miter;stroke:rgb(100%,0%,0%);stroke-opacity:1;stroke-miterlimit:10;" d="M 135.566406 153.300781 L 144.234375 161.386719 "/>
<path style=" stroke:none;fill-rule:nonzero;fill:rgb(100%,100%,100%);fill-opacity:1;" d="M 140.234375 155.886719 L 148.234375 155.886719 L 148.234375 166.886719 L 140.234375 166.886719 Z M 140.234375 155.886719 "/>
<g style="fill:rgb(100%,0%,0%);fill-opacity:1;">
  <use xlink:href="#glyph0-1" x="140.234375" y="164.549805"/>
</g>
<path style="fill:none;stroke-width:1.2;stroke-linecap:butt;stroke-linejoin:miter;stroke:rgb(0%,0%,0%);stroke-opacity:1;stroke-miterlimit:10;" d="M 164.972656 149.890625 L 160.449219 126.617188 "/>
<path style=" stroke:none;fill-rule:nonzero;fill:rgb(0%,0%,0%);fill-opacity:1;" d="M 164.972656 149.890625 L 184.691406 163.703125 L 188.230469 156.121094 Z M 164.972656 149.890625 "/>
<path style=" stroke:none;fill-rule:nonzero;fill:rgb(0%,0%,0%);fill-opacity:1;" d="M 160.449219 126.617188 L 179.675781 112.132812 L 173.558594 106.425781 Z M 160.449219 126.617188 "/>
<path style="fill:none;stroke-width:1.2;stroke-linecap:butt;stroke-linejoin:miter;stroke:rgb(0%,0%,0%);stroke-opacity:1;stroke-miterlimit:10;" d="M 160.449219 126.617188 L 136.914062 123.730469 "/>
<path style=" stroke:none;fill-rule:nonzero;fill:rgb(0%,0%,0%);fill-opacity:1;" d="M 136.914062 123.730469 L 129.078125 100.964844 L 121.761719 105.019531 Z M 136.914062 123.730469 "/>
<path style="fill:none;stroke-width:1.2;stroke-linecap:butt;stroke-linejoin:miter;stroke:rgb(0%,0%,0%);stroke-opacity:1;stroke-miterlimit:10;" d="M 136.914062 123.730469 L 126.894531 145.21875 "/>
<path style="fill:none;stroke-width:1;stroke-linecap:butt;stroke-linejoin:miter;stroke:rgb(0%,0%,0%);stroke-opacity:1;stroke-miterlimit:10;" d="M 126.894531 145.21875 L 126.894531 145.21875 M 123.894531 145.269531 L 124.09375 146.292969 M 120.898438 145.320312 L 121.292969 147.367188 M 117.898438 145.375 L 118.492188 148.445312 M 114.898438 145.425781 L 115.695312 149.519531 M 111.898438 145.476562 L 112.894531 150.59375 M 108.898438 145.53125 L 110.09375 151.671875 M 105.898438 145.582031 L 107.292969 152.746094 M 102.898438 145.632812 L 104.492188 153.820312 M 102.824219 145.632812 L 104.421875 153.847656 "/>
<path style="fill:none;stroke-width:1.2;stroke-linecap:butt;stroke-linejoin:miter;stroke:rgb(0%,0%,0%);stroke-opacity:1;stroke-miterlimit:10;" d="M 103.621094 149.742188 L 95.902344 172.160156 "/>
<path style="fill:none;stroke-width:1.2;stroke-linecap:butt;stroke-linejoin:miter;stroke:rgb(0%,0%,0%);stroke-opacity:1;stroke-miterlimit:10;" d="M 97.574219 150.167969 L 91.402344 168.101562 "/>
<path style="fill:none;stroke-width:1.2;stroke-linecap:butt;stroke-linejoin:miter;stroke:rgb(0%,0%,0%);stroke-opacity:1;stroke-miterlimit:10;" d="M 88.066406 131.847656 L 103.621094 149.742188 "/>
<path style="fill:none;stroke-width:1.2;stroke-linecap:butt;stroke-linejoin:miter;stroke:rgb(0%,0%,0%);stroke-opacity:1;stroke-miterlimit:10;" d="M 95.902344 172.160156 L 72.628906 176.683594 "/>
<path style="fill:none;stroke-width:1.2;stroke-linecap:butt;stroke-linejoin:miter;stroke:rgb(0%,0%,0%);stroke-opacity:1;stroke-miterlimit:10;" d="M 72.628906 176.683594 L 66.523438 186.847656 "/>
<path style="fill:none;stroke-width:1.2;stroke-linecap:butt;stroke-linejoin:miter;stroke:rgb(100%,0%,0%);stroke-opacity:1;stroke-miterlimit:10;" d="M 66.523438 186.847656 L 60.417969 197.007812 "/>
<path style="fill:none;stroke-width:1.2;stroke-linecap:butt;stroke-linejoin:miter;stroke:rgb(0%,0%,0%);stroke-opacity:1;stroke-miterlimit:10;" d="M 57.074219 158.789062 L 72.628906 176.683594 "/>
<path style="fill:none;stroke-width:1.2;stroke-linecap:butt;stroke-linejoin:miter;stroke:rgb(0%,0%,0%);stroke-opacity:1;stroke-miterlimit:10;" d="M 62.839844 156.921875 L 75.285156 171.234375 "/>
<path style="fill:none;stroke-width:1.2;stroke-linecap:butt;stroke-linejoin:miter;stroke:rgb(100%,0%,0%);stroke-opacity:1;stroke-miterlimit:10;" d="M 60.417969 197.007812 L 48.867188 194.339844 "/>
<path style="fill:none;stroke-width:1.2;stroke-linecap:butt;stroke-linejoin:miter;stroke:rgb(0%,0%,0%);stroke-opacity:1;stroke-miterlimit:10;" d="M 48.867188 194.339844 L 37.316406 191.675781 "/>
<path style=" stroke:none;fill-rule:nonzero;fill:rgb(100%,100%,100%);fill-opacity:1;" d="M 56.417969 191.507812 L 64.417969 191.507812 L 64.417969 202.507812 L 56.417969 202.507812 Z M 56.417969 191.507812 "/>
<g style="fill:rgb(100%,0%,0%);fill-opacity:1;">
  <use xlink:href="#glyph0-1" x="56.417969" y="200.170898"/>
</g>
<path style="fill:none;stroke-width:1.2;stroke-linecap:butt;stroke-linejoin:miter;stroke:rgb(0%,0%,0%);stroke-opacity:1;stroke-miterlimit:10;" d="M 37.316406 191.675781 L 36.285156 179.863281 "/>
<path style="fill:none;stroke-width:1.2;stroke-linecap:butt;stroke-linejoin:miter;stroke:rgb(100%,0%,0%);stroke-opacity:1;stroke-miterlimit:10;" d="M 36.285156 179.863281 L 35.25 168.054688 "/>
<path style="fill:none;stroke-width:1.2;stroke-linecap:butt;stroke-linejoin:miter;stroke:rgb(100%,0%,0%);stroke-opacity:1;stroke-miterlimit:10;" d="M 35.25 168.054688 L 46.164062 163.421875 "/>
<path style="fill:none;stroke-width:1.2;stroke-linecap:butt;stroke-linejoin:miter;stroke:rgb(0%,0%,0%);stroke-opacity:1;stroke-miterlimit:10;" d="M 46.164062 163.421875 L 57.074219 158.789062 "/>
<path style=" stroke:none;fill-rule:nonzero;fill:rgb(100%,100%,100%);fill-opacity:1;" d="M 31.25 162.554688 L 39.25 162.554688 L 39.25 173.554688 L 31.25 173.554688 Z M 31.25 162.554688 "/>
<g style="fill:rgb(100%,0%,0%);fill-opacity:1;">
  <use xlink:href="#glyph0-1" x="31.25" y="171.217773"/>
</g>
<path style="fill:none;stroke-width:1.2;stroke-linecap:butt;stroke-linejoin:miter;stroke:rgb(0%,0%,0%);stroke-opacity:1;stroke-miterlimit:10;" d="M 57.074219 158.789062 L 64.792969 136.371094 "/>
<path style="fill:none;stroke-width:1.2;stroke-linecap:butt;stroke-linejoin:miter;stroke:rgb(0%,0%,0%);stroke-opacity:1;stroke-miterlimit:10;" d="M 64.792969 136.371094 L 88.066406 131.847656 "/>
<path style="fill:none;stroke-width:1.2;stroke-linecap:butt;stroke-linejoin:miter;stroke:rgb(0%,0%,0%);stroke-opacity:1;stroke-miterlimit:10;" d="M 68.183594 141.398438 L 86.804688 137.777344 "/>
<path style="fill:none;stroke-width:1.2;stroke-linecap:butt;stroke-linejoin:miter;stroke:rgb(0%,0%,0%);stroke-opacity:1;stroke-miterlimit:10;" d="M 186.460938 159.910156 L 205.882812 146.3125 "/>
<path style="fill:none;stroke-width:1.2;stroke-linecap:butt;stroke-linejoin:miter;stroke:rgb(0%,0%,0%);stroke-opacity:1;stroke-miterlimit:10;" d="M 191.601562 163.121094 L 207.140625 152.242188 "/>
<path style="fill:none;stroke-width:1.2;stroke-linecap:butt;stroke-linejoin:miter;stroke:rgb(0%,0%,0%);stroke-opacity:1;stroke-miterlimit:10;" d="M 188.527344 183.53125 L 186.460938 159.910156 "/>
<path style="fill:none;stroke-width:1.2;stroke-linecap:butt;stroke-linejoin:miter;stroke:rgb(0%,0%,0%);stroke-opacity:1;stroke-miterlimit:10;" d="M 205.882812 146.3125 L 227.371094 156.332031 "/>
<path style="fill:none;stroke-width:1.2;stroke-linecap:butt;stroke-linejoin:miter;stroke:rgb(0%,0%,0%);stroke-opacity:1;stroke-miterlimit:10;" d="M 227.371094 156.332031 L 238.28125 151.699219 "/>
<path style="fill:none;stroke-width:1.2;stroke-linecap:butt;stroke-linejoin:miter;stroke:rgb(100%,0%,0%);stroke-opacity:1;stroke-miterlimit:10;" d="M 238.28125 151.699219 L 249.195312 147.066406 "/>
<path style="fill:none;stroke-width:1.2;stroke-linecap:butt;stroke-linejoin:miter;stroke:rgb(0%,0%,0%);stroke-opacity:1;stroke-miterlimit:10;" d="M 229.4375 179.949219 L 227.371094 156.332031 "/>
<path style="fill:none;stroke-width:1.2;stroke-linecap:butt;stroke-linejoin:miter;stroke:rgb(0%,0%,0%);stroke-opacity:1;stroke-miterlimit:10;" d="M 223.671875 178.074219 L 222.019531 159.179688 "/>
<path style="fill:none;stroke-width:1.2;stroke-linecap:butt;stroke-linejoin:miter;stroke:rgb(100%,0%,0%);stroke-opacity:1;stroke-miterlimit:10;" d="M 249.195312 147.066406 L 256.972656 156.011719 "/>
<path style="fill:none;stroke-width:1.2;stroke-linecap:butt;stroke-linejoin:miter;stroke:rgb(0%,0%,0%);stroke-opacity:1;stroke-miterlimit:10;" d="M 256.972656 156.011719 L 264.75 164.960938 "/>
<path style=" stroke:none;fill-rule:nonzero;fill:rgb(100%,100%,100%);fill-opacity:1;" d="M 245.195312 141.566406 L 253.195312 141.566406 L 253.195312 152.566406 L 245.195312 152.566406 Z M 245.195312 141.566406 "/>
<g style="fill:rgb(100%,0%,0%);fill-opacity:1;">
  <use xlink:href="#glyph0-1" x="245.195312" y="150.229492"/>
</g>
<path style="fill:none;stroke-width:1.2;stroke-linecap:butt;stroke-linejoin:miter;stroke:rgb(0%,0%,0%);stroke-opacity:1;stroke-miterlimit:10;" d="M 264.75 164.960938 L 258.644531 175.121094 "/>
<path style="fill:none;stroke-width:1.2;stroke-linecap:butt;stroke-linejoin:miter;stroke:rgb(100%,0%,0%);stroke-opacity:1;stroke-miterlimit:10;" d="M 258.644531 175.121094 L 252.539062 185.285156 "/>
<path style="fill:none;stroke-width:1.2;stroke-linecap:butt;stroke-linejoin:miter;stroke:rgb(100%,0%,0%);stroke-opacity:1;stroke-miterlimit:10;" d="M 252.539062 185.285156 L 240.988281 182.617188 "/>
<path style="fill:none;stroke-width:1.2;stroke-linecap:butt;stroke-linejoin:miter;stroke:rgb(0%,0%,0%);stroke-opacity:1;stroke-miterlimit:10;" d="M 240.988281 182.617188 L 229.4375 179.949219 "/>
<path style=" stroke:none;fill-rule:nonzero;fill:rgb(100%,100%,100%);fill-opacity:1;" d="M 248.539062 179.785156 L 256.539062 179.785156 L 256.539062 190.785156 L 248.539062 190.785156 Z M 248.539062 179.785156 "/>
<g style="fill:rgb(100%,0%,0%);fill-opacity:1;">
  <use xlink:href="#glyph0-1" x="248.539062" y="188.448242"/>
</g>
<path style="fill:none;stroke-width:1.2;stroke-linecap:butt;stroke-linejoin:miter;stroke:rgb(0%,0%,0%);stroke-opacity:1;stroke-miterlimit:10;" d="M 229.4375 179.949219 L 210.015625 193.550781 "/>
<path style="fill:none;stroke-width:1.2;stroke-linecap:butt;stroke-linejoin:miter;stroke:rgb(0%,0%,0%);stroke-opacity:1;stroke-miterlimit:10;" d="M 210.015625 193.550781 L 188.527344 183.53125 "/>
<path style="fill:none;stroke-width:1.2;stroke-linecap:butt;stroke-linejoin:miter;stroke:rgb(0%,0%,0%);stroke-opacity:1;stroke-miterlimit:10;" d="M 210.226562 187.492188 L 193.035156 179.476562 "/>
</g>
</svg>

<svg xmlns="http://www.w3.org/2000/svg" xmlns:xlink="http://www.w3.org/1999/xlink" width="300pt" height="300pt" viewBox="0 0 300 300"><defs><symbol overflow="visible"><path d="M.453 1.594v-7.938h4.5v7.938zm.5-.5h3.5v-6.938h-3.5zm0 0"/></symbol><symbol overflow="visible" id="a"><path d="M3.547-5.953c-.65 0-1.164.242-1.547.72-.375.48-.563 1.13-.563 1.952 0 .835.188 1.49.563 1.967.383.48.898.72 1.547.72.644 0 1.156-.24 1.53-.72.376-.476.564-1.132.564-1.968 0-.822-.187-1.474-.562-1.954-.375-.477-.887-.72-1.53-.72zm0-.734c.914 0 1.648.312 2.203.937.55.617.828 1.438.828 2.47 0 1.042-.277 1.87-.828 2.483-.555.617-1.29.922-2.203.922-.93 0-1.668-.305-2.22-.922C.774-1.41.5-2.237.5-3.28c0-1.033.273-1.853.828-2.47.55-.625 1.29-.938 2.22-.938zm0 0"/></symbol></defs><g><path fill="#fff" d="M0 0h300v300H0z"/><path d="M144.234 161.387l10.37-5.746" stroke-width="1.2" stroke="#f00" stroke-miterlimit="10" fill="none"/><path d="M154.605 155.64l10.368-5.75M126.895 145.22l8.67 8.08" stroke-width="1.2" stroke="#000" stroke-miterlimit="10" fill="none"/><path d="M135.566 153.3l8.668 8.087" stroke-width="1.2" stroke="#f00" stroke-miterlimit="10" fill="none"/><path d="M140.234 155.887h8v11h-8zm0 0" fill="#fff"/><use xlink:href="#a" x="140.234" y="164.55" fill="#f00"/><path d="M164.973 149.89l-4.524-23.273" stroke-width="1.2" stroke="#000" stroke-miterlimit="10" fill="none"/><path d="M164.973 149.89l19.718 13.813 3.54-7.582zm0 0M160.45 126.617l19.226-14.484-6.117-5.707zm0 0"/><path d="M160.45 126.617l-23.536-2.887" stroke-width="1.2" stroke="#000" stroke-miterlimit="10" fill="none"/><path d="M136.914 123.73l-7.836-22.765-7.316 4.055zm0 0"/><path d="M136.914 123.73l-10.02 21.49" stroke-width="1.2" stroke="#000" stroke-miterlimit="10" fill="none"/><path d="M126.895 145.22m-3 .05l.2 1.023m-3.197-.973l.395 2.047m-3.395-1.992l.594 3.07m-3.594-3.02l.797 4.095m-3.797-4.043l.997 5.117m-3.997-5.063l1.196 6.142m-4.196-6.09l1.395 7.164m-4.395-7.113l1.594 8.187m-1.668-8.187l1.598 8.215" stroke="#000" stroke-miterlimit="10" fill="none"/><path d="M103.62 149.742l-7.718 22.418M97.574 150.168l-6.172 17.934M88.066 131.848l15.555 17.894M95.902 172.16l-23.273 4.524M72.63 176.684l-6.107 10.164" stroke-width="1.2" stroke="#000" stroke-miterlimit="10" fill="none"/><path d="M66.523 186.848l-6.105 10.16" stroke-width="1.2" stroke="#f00" stroke-miterlimit="10" fill="none"/><path d="M57.074 158.79l15.555 17.894M62.84 156.922l12.445 14.312" stroke-width="1.2" stroke="#000" stroke-miterlimit="10" fill="none"/><path d="M60.418 197.008l-11.55-2.668" stroke-width="1.2" stroke="#f00" stroke-miterlimit="10" fill="none"/><path d="M48.867 194.34l-11.55-2.664" stroke-width="1.2" stroke="#000" stroke-miterlimit="10" fill="none"/><path d="M56.418 191.508h8v11h-8zm0 0" fill="#fff"/><use xlink:href="#a" x="56.418" y="200.171" fill="#f00"/><path d="M37.316 191.676l-1.03-11.813" stroke-width="1.2" stroke="#000" stroke-miterlimit="10" fill="none"/><path d="M36.285 179.863l-1.035-11.808M35.25 168.055l10.914-4.633" stroke-width="1.2" stroke="#f00" stroke-miterlimit="10" fill="none"/><path d="M46.164 163.422l10.91-4.633" stroke-width="1.2" stroke="#000" stroke-miterlimit="10" fill="none"/><path d="M31.25 162.555h8v11h-8zm0 0" fill="#fff"/><use xlink:href="#a" x="31.25" y="171.218" fill="#f00"/><path d="M57.074 158.79l7.72-22.42M64.793 136.37l23.273-4.522M68.184 141.398l18.62-3.62M186.46 159.91l19.423-13.597M191.602 163.12l15.54-10.878M188.527 183.53l-2.066-23.62M205.883 146.313l21.488 10.02M227.37 156.332l10.91-4.633" stroke-width="1.2" stroke="#000" stroke-miterlimit="10" fill="none"/><path d="M238.28 151.7l10.915-4.634" stroke-width="1.2" stroke="#f00" stroke-miterlimit="10" fill="none"/><path d="M229.438 179.95l-2.067-23.618M223.672 178.074l-1.652-18.894" stroke-width="1.2" stroke="#000" stroke-miterlimit="10" fill="none"/><path d="M249.195 147.066l7.778 8.946" stroke-width="1.2" stroke="#f00" stroke-miterlimit="10" fill="none"/><path d="M256.973 156.012l7.777 8.95" stroke-width="1.2" stroke="#000" stroke-miterlimit="10" fill="none"/><path d="M245.195 141.566h8v11h-8zm0 0" fill="#fff"/><use xlink:href="#a" x="245.195" y="150.229" fill="#f00"/><path d="M264.75 164.96l-6.105 10.16" stroke-width="1.2" stroke="#000" stroke-miterlimit="10" fill="none"/><path d="M258.645 175.12l-6.106 10.165M252.54 185.285l-11.552-2.668" stroke-width="1.2" stroke="#f00" stroke-miterlimit="10" fill="none"/><path d="M240.988 182.617l-11.55-2.668" stroke-width="1.2" stroke="#000" stroke-miterlimit="10" fill="none"/><path d="M248.54 179.785h8v11h-8zm0 0" fill="#fff"/><use xlink:href="#a" x="248.539" y="188.448" fill="#f00"/><path d="M229.438 179.95l-19.422 13.6M210.016 193.55l-21.49-10.02M210.227 187.492l-17.192-8.015" stroke-width="1.2" stroke="#000" stroke-miterlimit="10" fill="none"/></g></svg>
